X:7450
T:the Weavers March or 21st. of August.
O:england
N:somebody (Burns?) from near Aird's time thought this was a
N:Swedish tune originally; adopted by weavers in SW Scotland
M:C
L:1/8
K:D
ABAG F2GA|B2B2 TA4   |Bcdc B2B2|     g2f2 Te4 |\
ABAG F2GA|B2B2 TA4   |BcdB c2de| {f}Te4    d4||
f2gf e2fe|dfed  c2TBA|Bcdc B2B2|     g2f2 Te4 |\
GBAG F2GA|B2B2 TA4   |BcdB c2de|({f}Te4)   d4::


